svg/Pictogram/pictograms-nps-lodging.svg

<svg xmlns="http://www.w3.org/2000/svg" width="123.55" height="123.54" viewBox="-0.258 -0.548 123.547 123.539" enable-background="new -0.258 -0.548 123.547 123.539"><path d="m109.63 122.78c8.156 0 14.773-6.609 14.773-14.742v-94.04c0-8.133-6.617-14.75-14.773-14.75h-94.02c-8.156 0-14.758 6.617-14.758 14.75v94.04c0 8.133 6.602 14.742 14.758 14.742h94.02"/><path d="m15.609 1.754c-6.758 0-12.258 5.492-12.258 12.25v94.04c0 6.75 5.5 12.242 12.258 12.242h94.02c6.766 0 12.258-5.492 12.258-12.242v-94.04c0-6.758-5.492-12.25-12.258-12.25h-94.02"/><g fill="#fff"><path d="m102.53 71.98v14.844h7.836v-22.19h-87.64v-32.11c0-2.148-1.719-3.906-3.891-3.906-2.148 0-3.883 1.758-3.883 3.906v54.3h7.773v-14.844h79.81"/><path d="m34.688 48.18c3.898 0 7.05-3.148 7.05-7.05 0-3.883-3.148-7.03-7.05-7.03-3.891 0-7.04 3.148-7.04 7.03-.0001 3.906 3.148 7.05 7.04 7.05"/><path d="m110.49 58.801l-.023-9.695c-.023-3.07-2.617-5.195-5.617-5.562l-55.33-5.524c-.109-.023-.211-.07-.305-.07-1.922 0-3.469 1.562-3.469 3.469v10.445h-14.468c-1.938 0-3.484 1.562-3.484 3.469 0 1.93 1.547 3.469 3.484 3.469h79.21z"/></g></svg>

<?xml version="1.0" encoding="iso-8859-1"?>
<!-- Generator: Adobe Illustrator 13.0.2, SVG Export Plug-In . SVG Version: 6.00 Build 14948)  -->
<!DOCTYPE svg PUBLIC "-//W3C//DTD SVG 1.1//EN" "http://www.w3.org/Graphics/SVG/1.1/DTD/svg11.dtd">
<svg version="1.1" id="Layer_1" xmlns="http://www.w3.org/2000/svg" xmlns:xlink="http://www.w3.org/1999/xlink" x="0px" y="0px"
	 width="123.547px" height="123.539px" viewBox="-0.258 -0.548 123.547 123.539"
	 style="enable-background:new -0.258 -0.548 123.547 123.539;" xml:space="preserve">
<g>
	<path style="fill:#000000;" d="M109.633,122.785c8.156,0,14.773-6.609,14.773-14.742V14.004c0-8.133-6.617-14.75-14.773-14.75
		H15.609c-8.156,0-14.758,6.617-14.758,14.75v94.039c0,8.133,6.602,14.742,14.758,14.742H109.633z"/>
	<path d="M15.609,1.754c-6.758,0-12.258,5.492-12.258,12.25v94.039c0,6.75,5.5,12.242,12.258,12.242h94.023
		c6.766,0,12.258-5.492,12.258-12.242V14.004c0-6.758-5.492-12.25-12.258-12.25H15.609z"/>
	<path style="fill:#FFFFFF;" d="M102.531,71.98v14.844h7.836V64.637H22.727V32.527c0-2.148-1.719-3.906-3.891-3.906l0,0
		c-2.148,0-3.883,1.758-3.883,3.906v54.297h7.773V71.98H102.531z"/>
	<path style="fill:#FFFFFF;" d="M34.688,48.176c3.898,0,7.047-3.148,7.047-7.055c0-3.883-3.148-7.031-7.047-7.031
		c-3.891,0-7.039,3.148-7.039,7.031C27.648,45.027,30.797,48.176,34.688,48.176z"/>
	<path style="fill:#FFFFFF;" d="M110.492,58.801l-0.023-9.695c-0.023-3.07-2.617-5.195-5.617-5.562L49.523,38.02
		c-0.109-0.023-0.211-0.07-0.305-0.07c-1.922,0-3.469,1.562-3.469,3.469v10.445H31.281c-1.938,0-3.484,1.562-3.484,3.469
		c0,1.93,1.547,3.469,3.484,3.469H110.492z"/>
</g>
</svg>
